assets/images/logo-medium.svg

<svg fill="none" height="56" viewBox="0 0 56 56" width="56" xmlns="http://www.w3.org/2000/svg"><path d="m56 0h-56v56h56z" fill="#12100e"/><path d="m13.3634 18.7285c.0468-.4618-.1294-.9183-.4742-1.2291l-3.51265-4.2316v-.6321h10.90675l8.4304 18.4889 7.4117-18.4889h10.3975v.6321l-3.0034 2.8796c-.2589.1974-.3873.5217-.3337.8428v21.1578c-.0536.321.0748.6454.3337.8427l2.9331 2.8796v.6321h-14.7531v-.6321l3.0384-2.9498c.2986-.2985.2986-.3863.2986-.8428v-17.1018l-8.448 21.4563h-1.1416l-9.8354-21.4563v14.3803c-.082.6046.1188 1.2133.5445 1.6505l3.9517 4.7934v.6321h-11.20536v-.6321l3.95176-4.7934c.4226-.438.6116-1.0507.5093-1.6505z" fill="#fff"/></svg>

<svg width="56" height="56" viewBox="0 0 56 56" fill="none" xmlns="http://www.w3.org/2000/svg">
<path d="M56 0H0V56H56V0Z" fill="#12100E"/>
<path d="M13.3634 18.7285C13.4102 18.2667 13.234 17.8102 12.8892 17.4994L9.37655 13.2678V12.6357H20.2833L28.7137 31.1246L36.1254 12.6357H46.5229V13.2678L43.5195 16.1474C43.2606 16.3448 43.1322 16.6691 43.1858 16.9902V38.148C43.1322 38.469 43.2606 38.7934 43.5195 38.9907L46.4526 41.8703V42.5024H31.6995V41.8703L34.7379 38.9205C35.0365 38.622 35.0365 38.5342 35.0365 38.0777V20.9759L26.5885 42.4322H25.4469L15.6115 20.9759V35.3562C15.5295 35.9608 15.7303 36.5695 16.156 37.0067L20.1077 41.8001V42.4322H8.90234V41.8001L12.8541 37.0067C13.2767 36.5687 13.4657 35.956 13.3634 35.3562V18.7285Z" fill="white"/>
</svg>
